X:3818
T:Lough Gowna set No 3
O:england
R:double jig
M:6/8
L:1/8
K:G
A|BAG EGD|EGD EGA|BAG EGD|EAA ABc|
BAG EGD|EGD EGA|BAG EGD|1 EGG G2:|2 EGG G3|
|:GBd e2d|dgG B2A|GBd edB|c2a aga|
bag egd|egd ega|bag egd|egg g3:|
